app/javascript/images/hardpoints/fuel_intakes.svg

<svg fill="#428bca" stroke="#428bca" viewBox="0 0 38.57 25.18" xmlns="http://www.w3.org/2000/svg"><path d="m38.57 10.23v4.69l-8.42 10.26h-17v-4l1.94-2v4h4.35l5.44-5.41v-10.38l-5.29-5.39h-4.49v4l-1.9-2v-4h17zm-38.57.93h11.36l-1-5.2 6.64 6.63-6.63 6.63 1-5.32h-11.37z"/></svg>

<svg xmlns="http://www.w3.org/2000/svg" viewBox="0 0 38.57 25.18" style="fill: #428bca; stroke: #428bca">
  <path d="M38.57,10.23v4.69L30.15,25.18h-17v-4l1.94-2v4h4.35l5.44-5.41V7.39L19.59,2H15.1V6L13.2,4V0h17ZM0,11.16H11.36l-1-5.2L17,12.59l-6.63,6.63,1-5.32H0Z"></path>
</svg>
